X: 92
T: Missa Nunca fu\'e pena mayor / Agnus Dei
N: Derived from Rue1020e-Missa_Nunca_fue_pena_mayor-Agnus.krn
C: Pierre de la Rue
%%abc-version 2.0
%%abcx-abcm2ps-target-version 5.9.1 (29 Sep 2008)
%%abc-creator hum2abc beta
%%abcx-conversion-date 2019/02/17 08:01:13
%%abc-edited-by Jesse Rodin
%%abc-edited-by Jesse Rodin; Chris Gage 10-25-2012
%%abcx-initial-encoding-date 2012/11/10/
%%humdrum-veritas 2988970309
%%humdrum-veritas-data 465615767
%%linebreak <none>
%%barnumbers 0
L: 1/4
M: 3/1
Q: 1/2=120
%%staves [1 2 3 4]
V: 1 clef=treble
V: 2 clef=treble-8
V: 3 clef=treble-8
V: 4 clef=bass
K: C
[V:1] z12 | 
[V:2] E4G8 | 
[V:3] e4e8 | 
[V:4] z12 | 
[V:1] E4G4A4 | 
[V:2] G4B4c3B | 
[V:3] c4d3cA4 | 
[V:4] z12 | 
[V:1] B2c3BG2A4- | 
[V:2] G2A2E2e2A2f2- | 
[V:3] e8d4 | 
[V:4] z4E,4F,4 | 
[V:1] A4A4G3A | 
[V:2] f2edc2A2B2c2 | 
[V:3] c6d2e4 | 
[V:4] F,8E,4 | 
[V:1] B2G2z2G2A4 | 
[V:2] B2e2A2B2c2d2 | 
[V:3] z2c2d2e2f4 | 
[V:4] z2E,2F,2E,4D,2 | 
[V:1] G3ABcd4c2 | 
[V:2] B2e2f2d2e2e2 | 
[V:3] e2c2d4A4 | 
[V:4] E,4z4z4 | 
[V:1] A2B4A4^G2 | 
[V:2] f4e8 | 
[V:3] d4B2c2B4 | 
[V:4] z4E,4E,4 | 
[V:1] A8z4 | 
[V:2] c2d3cBAB4 | 
[V:3] A8G4 | 
[V:4] F,8E,4 | 
[V:1] c4B2c3BG2 | 
[V:2] A4z2c3de2 | 
[V:3] A4z4z4 | 
[V:4] z2A,2G,2A,2F,2E,2 | 
[V:1] A2E2z2G2A2G2 | 
[V:2] A2c3de2A2e2- | 
[V:3] c8c4 | 
[V:4] z2A,3G,E,2F,2E,2 | 
[V:1] E2A4F2G2A2 | 
[V:2] edcBA4z4 | 
[V:3] c4d4c4- | 
[V:4] z2F,4D,2E,2F,2 | 
[V:1] G2E2c3BA2G2 | 
[V:2] z2e2f2g2c4 | 
[V:3] c8z2c2- | 
[V:4] E,2A,3G,E,2F,2E,2 | 
[V:1] A2B3AG4^F2 | 
[V:2] f2de2d2cd4 | 
[V:3] c2B2G4A4 | 
[V:4] F,2G,3F,E,2D,4 | 
[V:1] G8z4 | 
[V:2] B6AGA4 | 
[V:3] G4G2c4d2 | 
[V:4] z2E,4E,2F,4 | 
[V:1] G3AB2c3AB2 | 
[V:2] B2c2B2A2c2B2 | 
[V:3] e8z2d2 | 
[V:4] E,4z2A,2F,2G,2 | 
[V:1] E2A2B2c2B2e2- | 
[V:2] Ac2B/A/G3AB2c2 | 
[V:3] c4g8 | 
[V:4] A,4E,8- | 
[V:1] edcBAGd4c2- | 
[V:2] B2G2A2B2c2A2 | 
[V:3] g4f4e2c2 | 
[V:4] E,4z4z4 | 
[V:1] c2B2c2G2A2G2 | 
[V:2] G4g2ee2de2 | 
[V:3] d4c4A2B2 | 
[V:4] z4z2E,2F,2E,2 | 
[V:1] F2E2c3BA2G2- | 
[V:2] A2c3de2f2d2 | 
[V:3] c3BA2G2z2GF | 
[V:4] A,3G,F,2E,2z4 | 
[V:1] G2F4E4D2 | 
[V:2] z4z4z2A2 | 
[V:3] G2A2G2E2F4 | 
[V:4] z2D,2E,2C,2D,4 | 
[V:1] E12- | 
[V:2] B2G2A2c4B2 | 
[V:3] E12- | 
[V:4] z4A,,4A,,B,,C,D, | 
[V:1] E12 |]  
[V:2] B12 |]  
[V:3] E12 |]  
[V:4] E,12 |]  



